resources/svg/text-small.svg

<svg xmlns="http://www.w3.org/2000/svg" fill="none" viewBox="0 0 14 14"><path fill="currentColor" fill-rule="evenodd" d="M4.38576 2.15204C4.44483 1.91576 4.65713 1.75 4.90069 1.75C5.14425 1.75 5.35655 1.91576 5.41562 2.15204L6.67308 7.1819C6.77354 7.58375 7.18075 7.82807 7.58259 7.72761C7.98444 7.62715 8.22876 7.21994 8.1283 6.8181L6.87083 1.78824C6.64482 0.884206 5.83255 0.25 4.90069 0.25C3.96883 0.25 3.15656 0.884205 2.93055 1.78824L1.17716 8.80178C1.17431 8.81221 1.17168 8.82272 1.16928 8.83332L0.173083 12.8181C0.0726217 13.2199 0.316942 13.6271 0.718788 13.7276C1.12063 13.8281 1.52784 13.5837 1.6283 13.1819L2.48627 9.75H5.90069C6.3149 9.75 6.65069 9.41421 6.65069 9C6.65069 8.58579 6.3149 8.25 5.90069 8.25H2.86127L4.38576 2.15204ZM11.8922 11.75L12.3879 13.2372C12.5189 13.6301 12.9436 13.8425 13.3366 13.7115C13.7295 13.5805 13.9419 13.1558 13.8109 12.7628L13.1507 10.7821C13.1467 10.7691 13.1424 10.7561 13.1378 10.7434L11.969 7.23717C11.7725 6.64764 11.2208 6.25 10.5994 6.25C9.978 6.25 9.4263 6.64764 9.22979 7.23717L8.05895 10.7497C8.05591 10.7583 8.05302 10.767 8.05028 10.7757L7.38791 12.7628C7.25692 13.1558 7.46929 13.5805 7.86225 13.7115C8.25521 13.8425 8.67995 13.6301 8.81093 13.2372L9.30666 11.75H11.8922ZM11.3922 10.25L10.5994 7.87171L9.80666 10.25H11.3922Z" clip-rule="evenodd"></path></svg>

<svg xmlns="http://www.w3.org/2000/svg" fill="none" viewBox="0 0 14 14"><path fill="currentColor" fill-rule="evenodd" d="M4.386 2.152a.53.53 0 0 1 1.03 0l1.257 5.03a.75.75 0 0 0 1.455-.364l-1.257-5.03a2.03 2.03 0 0 0-3.94 0L1.177 8.802a.737.737 0 0 0-.008.031l-.996 3.985a.75.75 0 0 0 1.455.364l.858-3.432h3.415a.75.75 0 0 0 0-1.5H2.86l1.525-6.098Zm7.506 9.598.496 1.487a.75.75 0 0 0 1.423-.474l-.66-1.98a.835.835 0 0 0-.013-.04l-1.169-3.506a1.444 1.444 0 0 0-2.74 0L8.06 10.75a.792.792 0 0 0-.009.026l-.662 1.987a.75.75 0 0 0 1.423.474l.496-1.487h2.585Zm-.5-1.5L10.6 7.872l-.792 2.378h1.585Z" clip-rule="evenodd"/></svg>
